X: 177
T:Lord Gordon's Reel
R:reel
H:Originally Scottish
D:Kevin Burke: Up Close
Z:id:hn-reel-203
M:C|
L:1/8
K:D
ADFD A,DFB|ADFD FAdc|BE~E2 cE~E2|BE~E2 BAFA|
dcdf ecdB|AFdF A2Bc|dBBA BFAF|[1 EFGA BcdB:|[2 EFGA Bcde|
|:f2df afdf|afdf a2gf|efga bgec|dcBA ^GABc|
df~f2 ecdB|AFdF A2Bc|dBBA BFAF|EFGA Bcde:|
|:fa~a2 fdad|fa~a2 fdad|gb~b2 gebe|gb~b2 gebe|
fgfe dcdA|BAGB ABdf|afec dBAF|[1 EFGA Bcde:|[2 EFGA BcdB|
|:Addc defd|Addc defd|eggf ~g3f|eggf gage|
fgfe dcdB|BAGB ABdf|afec dBAF|[1 EFGA BcdB:|[2 EFGA Bcde|
|:faa^g afde|faa^g a2=gf|gbef gbef|gbeg bgef|
g2bg fgaf|fedB ABdf|afec dBAF|[1 EFGA Bcde:|[2 EFGA BcdB||
